public/Icons/scroll-templates.svg

<svg fill="none" height="256" viewBox="0 0 24 24" width="256" xmlns="http://www.w3.org/2000/svg"><g fill="#275545"><path d="m5.70711 16.1359c-.39052.3905-.39052 1.0237 0 1.4142l4.89219 4.8874c.7812.7804 2.047.7801 2.8278-.0006l4.8903-4.8904c.3906-.3905.3906-1.0237 0-1.4142-.3905-.3905-1.0237-.3905-1.4142 0l-4.1856 4.1856c-.3905.3906-1.0237.3906-1.4142 0l-4.18208-4.182c-.39052-.3905-1.02369-.3905-1.41421 0z"/><path d="m18.3174 7.88675c.3906-.39052.3906-1.02368 0-1.41421l-4.8922-4.88745c-.7812-.780392-2.0469-.780082-2.8277.0007l-4.89039 4.89036c-.39053.39052-.39053 1.02369 0 1.41421.39052.39053 1.02369.39053 1.41421 0l4.18568-4.18564c.3905-.39053 1.0237-.39053 1.4142 0l4.182 4.18203c.3905.39053 1.0237.39053 1.4142 0z"/></g></svg>

<!DOCTYPE svg PUBLIC "-//W3C//DTD SVG 1.1//EN" "http://www.w3.org/Graphics/SVG/1.1/DTD/svg11.dtd">
<!-- Uploaded to: SVG Repo, www.svgrepo.com, Transformed by: SVG Repo Mixer Tools -->
<svg width="256px" height="256px" viewBox="0 0 24 24" fill="none" xmlns="http://www.w3.org/2000/svg">
<g id="SVGRepo_bgCarrier" stroke-width="0"/>
<g id="SVGRepo_tracerCarrier" stroke-linecap="round" stroke-linejoin="round"/>
<g id="SVGRepo_iconCarrier"> <path d="M5.70711 16.1359C5.31659 16.5264 5.31659 17.1596 5.70711 17.5501L10.5993 22.4375C11.3805 23.2179 12.6463 23.2176 13.4271 22.4369L18.3174 17.5465C18.708 17.156 18.708 16.5228 18.3174 16.1323C17.9269 15.7418 17.2937 15.7418 16.9032 16.1323L12.7176 20.3179C12.3271 20.7085 11.6939 20.7085 11.3034 20.3179L7.12132 16.1359C6.7308 15.7454 6.09763 15.7454 5.70711 16.1359Z" fill="#275545"/> <path d="M18.3174 7.88675C18.708 7.49623 18.708 6.86307 18.3174 6.47254L13.4252 1.58509C12.644 0.804698 11.3783 0.805008 10.5975 1.58579L5.70711 6.47615C5.31658 6.86667 5.31658 7.49984 5.70711 7.89036C6.09763 8.28089 6.7308 8.28089 7.12132 7.89036L11.307 3.70472C11.6975 3.31419 12.3307 3.31419 12.7212 3.70472L16.9032 7.88675C17.2937 8.27728 17.9269 8.27728 18.3174 7.88675Z" fill="#275545"/> </g>
</svg>
